X: 17373
T: High Part Of The Road, The
R: jig
M: 6/8
K: Gmajor
|:~B3 cBc|ded cAG|F2D DED|DGG FGA|
~B3 cBc|dcA deg|fed cAF|1 AGF GAc:|2 AGF G2 f||
~g3 def|g/g/ga bag|~f3 d^cd|afd cBA|
~g3 def|g/g/aa bag|fed cAF|AGF G2 f|
~g3 def|gac bag|~f3 d^cd|afd cBA|
~g3 def|gac bag|fed cAF|AGF G2 f||

